src/service/public/assets/images/resource/icons/gift.svg

<svg xmlns="http://www.w3.org/2000/svg" width="16" height="16" fill="currentColor" class="bi bi-gift" viewBox="0 0 16 16">
  <path d="M3 2.5a2.5 2.5 0 0 1 5 0 2.5 2.5 0 0 1 5 0v.006c0 .07 0 .27-.038.494H15a1 1 0 0 1 1 1v2a1 1 0 0 1-1 1v7.5a1.5 1.5 0 0 1-1.5 1.5h-11A1.5 1.5 0 0 1 1 14.5V7a1 1 0 0 1-1-1V4a1 1 0 0 1 1-1h2.038A2.968 2.968 0 0 1 3 2.506V2.5zm1.068.5H7v-.5a1.5 1.5 0 1 0-3 0c0 .085.002.274.045.43a.522.522 0 0 0 .023.07zM9 3h2.932a.56.56 0 0 0 .023-.07c.043-.156.045-.345.045-.43a1.5 1.5 0 0 0-3 0V3zM1 4v2h6V4H1zm8 0v2h6V4H9zm5 3H9v8h4.5a.5.5 0 0 0 .5-.5V7zm-7 8V7H2v7.5a.5.5 0 0 0 .5.5H7z"/>
</svg>

<svg xmlns="http://www.w3.org/2000/svg" width="16" height="16" viewBox="0 0 16 16">
  <path id="gift" d="M3,2.5a2.5,2.5,0,0,1,5,0,2.5,2.5,0,0,1,5,0v.006A2.967,2.967,0,0,1,12.962,3H15a1,1,0,0,1,1,1V6a1,1,0,0,1-1,1v7.5A1.5,1.5,0,0,1,13.5,16H2.5A1.5,1.5,0,0,1,1,14.5V7A1,1,0,0,1,0,6V4A1,1,0,0,1,1,3H3.038A2.968,2.968,0,0,1,3,2.506ZM4.068,3H7V2.5a1.5,1.5,0,1,0-3,0,1.738,1.738,0,0,0,.045.43A.522.522,0,0,0,4.068,3ZM9,3h2.932a.56.56,0,0,0,.023-.07A1.738,1.738,0,0,0,12,2.5a1.5,1.5,0,0,0-3,0ZM1,4V6H7V4ZM9,4V6h6V4Zm5,3H9v8h4.5a.5.5,0,0,0,.5-.5ZM7,15V7H2v7.5a.5.5,0,0,0,.5.5Z" fill="#777"/>
</svg>
